assets/mandsbank.svg

<?xml version="1.0" encoding="utf-8"?>
<!-- Generator: Adobe Illustrator 18.0.0, SVG Export Plug-In . SVG Version: 6.00 Build 0)  -->
<!DOCTYPE svg PUBLIC "-//W3C//DTD SVG 1.1//EN" "http://www.w3.org/Graphics/SVG/1.1/DTD/svg11.dtd">
<svg version="1.1" id="Layer_1" xmlns="http://www.w3.org/2000/svg" xmlns:xlink="http://www.w3.org/1999/xlink" x="0px" y="0px"
	 viewBox="0 0 459.7 145.1" enable-background="new 0 0 459.7 145.1" xml:space="preserve">
<rect x="0" y="0" fill="#231F20" width="459.7" height="145.1"/>
<rect x="0" y="0" width="459.7" height="145.1"/>
<polyline fill="#FFFFFF" points="93.6,46.9 93.6,98.4 88.9,98.4 88.9,56.3 71.9,89.2 68.6,89.2 51.6,56.4 51.6,98.4 46.9,98.4 
	46.9,46.9 51.8,46.9 70.3,82.4 88.7,46.9 "/>
<path fill="#FFFFFF" d="M143.7,99.1l-8.6-9.1c-3.1,4.9-7.3,8.4-14.2,8.4c-8.9,0-15.5-6.2-15.5-13.8c0-6.3,3.9-10.2,11.4-14.5
	c-4.3-4.3-6.6-7.8-6.6-12c0-6.1,5.2-11,11.4-11c6.6,0,11.6,4.9,11.6,11c0,5.9-4.6,9.9-9.3,12.9l10.6,11.6l6.3-10.2l3.8,2.4L137.6,86
	l9.5,10.1 M119.8,73.3c-6.7,3.7-9.7,6.6-9.7,11.2c0,5.2,4.7,9.6,10.8,9.6c5.5,0,8.3-2.5,11.3-7.4L119.8,73.3z M114.8,58
	c0,2.9,1.9,5.3,6.1,9.8c4.9-2.9,7.7-5.9,7.7-9.8c0-3.8-2.6-6.9-7-6.9C117.5,51.2,114.8,54.4,114.8,58"/>
<path fill="#FFFFFF" d="M187,57.9l-4.3,1.5c-1.7-5.4-6.5-8.8-13-8.8c-7.1,0-11.7,3.5-11.7,9.5c0,12.8,29.4,6,29.4,24.1
	c0,8.6-6.9,14.7-17.3,14.7c-9.6,0-15.3-4.6-19.3-11.9l4-2.4c2.7,5.6,7.5,10,14.9,10c8.6,0,13-3.9,13-10.4c0-12.9-29.4-6.6-29.4-24.1
	c0-10.4,9.4-13.8,16.3-13.8C177.4,46.2,184.5,49.8,187,57.9"/>
<path fill="#FFFFFF" d="M235.2,98.4h-19.9V46.9h18.9c10.2,0,16.9,5.1,16.9,12.9c0,6.7-3.9,10.2-7.7,12c6.4,2.2,9.8,6.4,9.8,12.2
	C253.1,92.7,246.1,98.4,235.2,98.4 M220,93.9h15.4c8,0,12.9-3.8,12.9-9.9c0-6-5-9.3-14.1-9.3H220V93.9z M220,70.2h13.7
	c7.7,0,12.5-3.8,12.5-10c0-5.5-4.6-8.8-12.2-8.8h-14V70.2z"/>
<path fill="#FFFFFF" d="M309.3,98.4h-5.1l-6-14.3h-26.8l-6,14.3h-5.1l21.4-51.5h6 M273.3,79.5h23.1l-11.6-27.8L273.3,79.5z"/>
<polyline fill="#FFFFFF" points="360.5,98.4 357,98.4 323.6,55.2 323.6,98.4 318.8,98.4 318.8,46.9 323.1,46.9 355.8,89.1 
	355.8,46.9 360.5,46.9 "/>
<polyline fill="#FFFFFF" points="415.2,98.4 409.1,98.4 408.9,98.2 388.2,73.2 381.4,80.4 381.4,98.4 376.7,98.4 376.7,46.9 
	381.4,46.9 381.4,73.9 407,46.9 413.2,46.9 391.6,69.6 "/>
<polyline fill="none" points="0,145.1 0,0 459.7,0 459.7,145.1 "/>
</svg>

<?xml version="1.0" encoding="UTF-8"?>
<svg width="460px" height="146px" viewBox="0 0 460 146" version="1.1" xmlns="http://www.w3.org/2000/svg" xmlns:xlink="http://www.w3.org/1999/xlink">
    <!-- Generator: Sketch 42 (36781) - http://www.bohemiancoding.com/sketch -->
    <title>mandsbank</title>
    <desc>Created with Sketch.</desc>
    <defs></defs>
    <g id="Page-1" stroke="none" stroke-width="1" fill="none" fill-rule="evenodd">
        <g id="mandsbank">
            <rect id="Rectangle-path" fill="#231F20" fill-rule="nonzero" x="0" y="0" width="459.7" height="145.1"></rect>
            <rect id="Rectangle-path" fill="#FFFFFF" fill-rule="nonzero" x="0" y="0" width="459.7" height="145.1"></rect>
            <polyline id="Shape" fill="#000000" fill-rule="nonzero" points="93.6 46.9 93.6 98.4 88.9 98.4 88.9 56.3 71.9 89.2 68.6 89.2 51.6 56.4 51.6 98.4 46.9 98.4 46.9 46.9 51.8 46.9 70.3 82.4 88.7 46.9"></polyline>
            <path d="M143.7,99.1 L135.1,90 C132,94.9 127.8,98.4 120.9,98.4 C112,98.4 105.4,92.2 105.4,84.6 C105.4,78.3 109.3,74.4 116.8,70.1 C112.5,65.8 110.2,62.3 110.2,58.1 C110.2,52 115.4,47.1 121.6,47.1 C128.2,47.1 133.2,52 133.2,58.1 C133.2,64 128.6,68 123.9,71 L134.5,82.6 L140.8,72.4 L144.6,74.8 L137.6,86 L147.1,96.1 L143.7,99.1 Z M119.8,73.3 C113.1,77 110.1,79.9 110.1,84.5 C110.1,89.7 114.8,94.1 120.9,94.1 C126.4,94.1 129.2,91.6 132.2,86.7 L119.8,73.3 Z M114.8,58 C114.8,60.9 116.7,63.3 120.9,67.8 C125.8,64.9 128.6,61.9 128.6,58 C128.6,54.2 126,51.1 121.6,51.1 C117.5,51.2 114.8,54.4 114.8,58 L114.8,58 Z" id="Shape" fill="#000000" fill-rule="nonzero"></path>
            <path d="M187,57.9 L182.7,59.4 C181,54 176.2,50.6 169.7,50.6 C162.6,50.6 158,54.1 158,60.1 C158,72.9 187.4,66.1 187.4,84.2 C187.4,92.8 180.5,98.9 170.1,98.9 C160.5,98.9 154.8,94.3 150.8,87 L154.8,84.6 C157.5,90.2 162.3,94.6 169.7,94.6 C178.3,94.6 182.7,90.7 182.7,84.2 C182.7,71.3 153.3,77.6 153.3,60.1 C153.3,49.7 162.7,46.3 169.6,46.3 C177.4,46.2 184.5,49.8 187,57.9" id="Shape" fill="#000000" fill-rule="nonzero"></path>
            <path d="M235.2,98.4 L215.3,98.4 L215.3,46.9 L234.2,46.9 C244.4,46.9 251.1,52 251.1,59.8 C251.1,66.5 247.2,70 243.4,71.8 C249.8,74 253.2,78.2 253.2,84 C253.1,92.7 246.1,98.4 235.2,98.4 L235.2,98.4 Z M220,93.9 L235.4,93.9 C243.4,93.9 248.3,90.1 248.3,84 C248.3,78 243.3,74.7 234.2,74.7 L220,74.7 L220,93.9 Z M220,70.2 L233.7,70.2 C241.4,70.2 246.2,66.4 246.2,60.2 C246.2,54.7 241.6,51.4 234,51.4 L220,51.4 L220,70.2 Z" id="Shape" fill="#000000" fill-rule="nonzero"></path>
            <path d="M309.3,98.4 L304.2,98.4 L298.2,84.1 L271.4,84.1 L265.4,98.4 L260.3,98.4 L281.7,46.9 L287.7,46.9 L309.3,98.4 Z M273.3,79.5 L296.4,79.5 L284.8,51.7 L273.3,79.5 Z" id="Shape" fill="#000000" fill-rule="nonzero"></path>
            <polyline id="Shape" fill="#000000" fill-rule="nonzero" points="360.5 98.4 357 98.4 323.6 55.2 323.6 98.4 318.8 98.4 318.8 46.9 323.1 46.9 355.8 89.1 355.8 46.9 360.5 46.9"></polyline>
            <polyline id="Shape" fill="#000000" fill-rule="nonzero" points="415.2 98.4 409.1 98.4 408.9 98.2 388.2 73.2 381.4 80.4 381.4 98.4 376.7 98.4 376.7 46.9 381.4 46.9 381.4 73.9 407 46.9 413.2 46.9 391.6 69.6"></polyline>
            <polyline id="Shape" points="0 145.1 0 0 459.7 0 459.7 145.1"></polyline>
        </g>
    </g>
</svg>
